Sources/FrostedUI/Resources/Icons.xcassets/hashtag16.imageset/hashtag-16.svg

<svg width="16" height="16" viewBox="0 0 16 16" fill="none" xmlns="http://www.w3.org/2000/svg" data-fui-icon="true">
  <path
    d="M11.6855 2.55078C11.7928 2.15096 12.2036 1.91355 12.6035 2.02051C13.0035 2.1278 13.241 2.53942 13.1338 2.93945L12.5488 5.12207H14.2559L14.332 5.12598C14.7104 5.16419 15.0058 5.4837 15.0059 5.87207C15.0059 6.26053 14.7104 6.57994 14.332 6.61816L14.2559 6.62207H12.1475L11.1953 10.1748H13.0527L13.1289 10.1787C13.5073 10.2169 13.8027 10.5363 13.8027 10.9248C13.8026 11.3132 13.5072 11.6327 13.1289 11.6709L13.0527 11.6748H10.7939L10.1689 14.0059C10.0616 14.4057 9.64991 14.6432 9.25 14.5361C8.85029 14.4289 8.61296 14.018 8.71973 13.6182L9.24023 11.6748H5.01953L4.39453 14.0059C4.28712 14.4057 3.87552 14.6433 3.47559 14.5361C3.07606 14.4288 2.83865 14.0179 2.94531 13.6182L3.46582 11.6748H1.74512C1.3311 11.6747 0.995227 11.3388 0.995117 10.9248C0.995117 10.5107 1.33103 10.175 1.74512 10.1748H3.86816L4.82031 6.62207H2.94824C2.53416 6.62192 2.19824 6.28619 2.19824 5.87207C2.19835 5.45805 2.53423 5.12222 2.94824 5.12207H5.22168L5.91113 2.55078C6.0184 2.15104 6.42927 1.9137 6.8291 2.02051C7.2292 2.12771 7.46658 2.53935 7.35938 2.93945L6.77441 5.12207H10.9961L11.6855 2.55078ZM5.4209 10.1748H9.64258L10.5947 6.62207H6.37305L5.4209 10.1748Z"
    fill="currentColor"
  />
</svg>

<svg xmlns="http://www.w3.org/2000/svg" width="16" height="16" fill="none" data-fui-icon="true" viewBox="0 0 16 16"><path fill="currentColor" d="M11.686 2.55a.75.75 0 1 1 1.448.39l-.585 2.182h1.707l.076.004a.75.75 0 0 1 0 1.492l-.076.004h-2.108l-.953 3.553h1.858l.076.004a.75.75 0 0 1 0 1.492l-.076.004h-2.26l-.624 2.33a.75.75 0 0 1-1.45-.387l.521-1.943H5.02l-.625 2.33a.75.75 0 0 1-1.45-.387l.52-1.943h-1.72a.75.75 0 0 1 0-1.5h2.123l.952-3.553H2.948a.75.75 0 0 1 0-1.5h2.274l.69-2.571a.75.75 0 0 1 1.447.388l-.585 2.183h4.222zM5.42 10.176h4.222l.952-3.553H6.373z"/></svg>
